icons/repo-locked-24.svg

<svg width="24" height="24" viewBox="0 0 24 24" fill="none" xmlns="http://www.w3.org/2000/svg">
<path d="M2 2.75C2 1.23122 3.23122 0 4.75 0H19.25C19.6642 0 20 0.335786 20 0.75V8.75C20 9.16421 19.6642 9.5 19.25 9.5C18.8358 9.5 18.5 9.16421 18.5 8.75V1.5H4.75C4.05964 1.5 3.5 2.05964 3.5 2.75V15.4013C3.94126 15.1461 4.45357 15 5 15H11.25C11.6642 15 12 15.3358 12 15.75C12 16.1642 11.6642 16.5 11.25 16.5H5C4.17157 16.5 3.5 17.1716 3.5 18V19.25C3.5 19.9404 4.05964 20.5 4.75 20.5H10.75C11.1642 20.5 11.5 20.8358 11.5 21.25C11.5 21.6642 11.1642 22 10.75 22H4.75C3.23122 22 2 20.7688 2 19.25V2.75Z" fill="black"/>
<path fill-rule="evenodd" clip-rule="evenodd" d="M15 14.5V16H14.75C13.7835 16 13 16.7835 13 17.75V22.25C13 23.2165 13.7835 24 14.75 24H22.25C23.2165 24 24 23.2165 24 22.25V17.75C24 16.7835 23.2165 16 22.25 16H22V14.5C22 12.567 20.433 11 18.5 11C16.567 11 15 12.567 15 14.5ZM18.5 12.5C17.3954 12.5 16.5 13.3954 16.5 14.5V16H20.5V14.5C20.5 13.3954 19.6046 12.5 18.5 12.5Z" fill="black"/>
</svg>

<svg xmlns="http://www.w3.org/2000/svg" width="24" height="24" viewBox="0 0 24 24"><path d="M2 2.75A2.75 2.75 0 014.75 0h14.5a.75.75 0 01.75.75v8a.75.75 0 01-1.5 0V1.5H4.75c-.69 0-1.25.56-1.25 1.25v12.651A2.987 2.987 0 015 15h6.25a.75.75 0 010 1.5H5A1.5 1.5 0 003.5 18v1.25c0 .69.56 1.25 1.25 1.25h6a.75.75 0 010 1.5h-6A2.75 2.75 0 012 19.25V2.75z"/><path fill-rule="evenodd" d="M15 14.5V16h-.25A1.75 1.75 0 0013 17.75v4.5c0 .966.784 1.75 1.75 1.75h7.5A1.75 1.75 0 0024 22.25v-4.5A1.75 1.75 0 0022.25 16H22v-1.5a3.5 3.5 0 10-7 0zm3.5-2a2 2 0 00-2 2V16h4v-1.5a2 2 0 00-2-2z"/></svg>
